svg/fluentui-system-icons/ic_fluent_multiplier_1x_24_filled.svg

<svg width="24" height="24" viewBox="0 0 24 24" fill="none" xmlns="http://www.w3.org/2000/svg">
<path d="M10.0002 7.9016C10.0002 7.45324 9.70182 7.05967 9.27018 6.93861C8.83854 6.81754 8.37909 6.99856 8.14598 7.38153C8.12163 7.42154 8.09731 7.46178 8.07287 7.50224C7.67007 8.16885 7.23096 8.89555 5.98566 9.64284C5.51208 9.92703 5.35851 10.5414 5.64266 11.015C5.92681 11.4887 6.54107 11.6423 7.01465 11.3581C7.39227 11.1315 7.71759 10.9014 8.00015 10.6724V16.001C8.00015 16.5534 8.44795 17.0012 9.00029 17.0011C9.55252 17.0011 10.0002 16.5533 10.0002 16.001V7.9016ZM13.7071 12.2936C13.3166 11.903 12.6834 11.903 12.2929 12.2936C11.9024 12.6842 11.9024 13.3174 12.2929 13.708L13.0858 14.501L12.2929 15.294C11.9024 15.6846 11.9024 16.3179 12.2929 16.7084C12.6834 17.099 13.3166 17.099 13.7071 16.7084L14.5 15.9154L15.2929 16.7084C15.6834 17.099 16.3166 17.099 16.7071 16.7084C17.0976 16.3179 17.0976 15.6846 16.7071 15.294L15.9142 14.501L16.7071 13.708C17.0976 13.3174 17.0976 12.6842 16.7071 12.2936C16.3166 11.903 15.6834 11.903 15.2929 12.2936L14.5 13.0866L13.7071 12.2936Z" fill="#212121"/>
</svg>

<svg xmlns="http://www.w3.org/2000/svg" width="24" height="24"><path d="M10 7.902a1 1 0 0 0-1.854-.52l-.073.12c-.403.667-.842 1.394-2.087 2.14a1 1 0 0 0 1.029 1.716A8.53 8.53 0 0 0 8 10.672v5.329a1 1 0 1 0 2 0v-8.1Zm3.707 4.392a1 1 0 1 0-1.414 1.414l.793.793-.793.793a1 1 0 0 0 1.414 1.414l.793-.793.793.793a1 1 0 1 0 1.414-1.414l-.793-.793.793-.793a1 1 0 0 0-1.414-1.414l-.793.793-.793-.793Z"/></svg>
